src/icons/editor/glyph/QuoteIcon.svg

<svg width="24" height="24" viewBox="0 0 24 24" fill="none" xmlns="http://www.w3.org/2000/svg">
<path d="M14.0156 17.0156L15.9844 12.9844H12.9844V6.98438H18.9844V12.9844L17.0156 17.0156H14.0156ZM6 17.0156L8.01562 12.9844H5.01562V6.98438H11.0156V12.9844L9 17.0156H6Z" fill="currentColor"/>
</svg>

<svg xmlns="http://www.w3.org/2000/svg" width="24" height="24" fill="currentColor" viewBox="0 0 24 24">
  <path d="m14.016 17.016 1.968-4.032h-3v-6h6v6l-1.968 4.032h-3Zm-8.016 0 2.016-4.032h-3v-6h6v6L9 17.016H6Z"/>
</svg>
